svg/free/list-high-priority.svg

<svg version="1.1" xmlns="http://www.w3.org/2000/svg" width="24" height="24" viewBox="0 0 24 24">
<title>list-high-priority</title>
<path d="M12 19.5h11.25v1.5h-11.25v-1.5z"></path>
<path d="M12 14.5h11.25v1.5h-11.25v-1.5z"></path>
<path d="M12 9.5h11.25v1.5h-11.25v-1.5z"></path>
<path d="M15.375 4.5h7.875v1.5h-7.875v-1.5z"></path>
<path d="M2.25 12.75c0-3.722 2.381-6.75 5.308-6.75h0.28v3.245l6.319-4.042-6.319-3.927v3.224h-0.28c-1.849 0-3.578 0.879-4.867 2.475-1.252 1.55-1.941 3.6-1.941 5.775s0.689 4.225 1.941 5.775c1.289 1.596 3.018 2.475 4.867 2.475h2.567v-1.5h-2.567c-2.927 0-5.308-3.028-5.308-6.75zM9.337 3.974l2.007 1.247-2.007 1.284z"></path>
</svg>

<svg xmlns="http://www.w3.org/2000/svg" width="24" height="24" viewBox="0 0 24 24"><path d="M12 19.5h11.25V21H12v-1.5zM12 14.5h11.25V16H12v-1.5zM12 9.5h11.25V11H12V9.5zM15.375 4.5h7.875V6h-7.875V4.5z"/><path d="M2.25 12.75C2.25 9.028 4.631 6 7.558 6h.28v3.245l6.319-4.042-6.319-3.927V4.5h-.28c-1.849 0-3.578.879-4.867 2.475C1.439 8.525.75 10.575.75 12.75s.689 4.225 1.941 5.775C3.98 20.121 5.709 21 7.558 21h2.567v-1.5H7.558c-2.927 0-5.308-3.028-5.308-6.75zm7.087-8.776l2.007 1.247-2.007 1.284z"/></svg>
